X:7
T:Hoppvals
Z:Track 8, Smaviltlaget, Lader Om; 2008 Brian Wilson <Brian.Wilson@alumni.brown.edu>
M:2/2
L:1/8
K:D
A
|: "D"F3A "D/A"A2F2 | "G"G3B "G/D"B2 G2 | "D"F3A "D/A"AF A2 | "D"d4- "D/F#"d2 "D/G"d2
|  "A"c3d "A/E"e2f2 | "A"g3 f "A/E"e2d2 | "A"c3B "A/E"A2 G2 | "D"F4- "D/A"F2 A2
|  "D"F3A "D/A"A2F2 | "G"G3B "G/D"B2 G2 | "D"F3A "D/A"AF A2 | "D"d4- "D/F#"d2 "D/G"d2
|  "A"c3d "A/E"e2f2 | "A"g3 f "A/E"e2c2 |  "D"d3 f "A"e2 c2 | "D"d4- "D/A"d2 A2 :|
|: "D"f3f "D/A"f2d2 | "G"g3g "G/D"g2 e2 | "D"a3a "D/A"af a2 | "G"b4- "G/D"b2 g2
|  "A"e3e "A/E"ece2 | "A"a4- "A/E"a2 g2 | "D"g3g "D/A"f2 e2 | "D"f4- "D/A"f2 A2
|  "D"f3f "D/A"f2d2 | "G"g3g "G/D"g2 e2 | "D"a3a "D/A"af a2 | "G"b4- "G/D"b2 g2
|  "A"e3e "A/C#"e2c2 | "D"d4- "D/F#"d2 f2 | "A/E"g3g "A"e2 c2 |  "D"d4- "D/A"d2 A2 :|


